X: 1
T: Gori More    (Bm)
O: Serbia
F: http://www.youtube.com/watch?v=ECgs5odksl0
F: http://www.youtube.com/watch?v=ribwGQ7-ZnA
F: https://www.youtube.com/watch?v=Y65yxjj-BRQ
F: https://www.youtube.com/watch?v=g7slxnRluLs
Z: Seymour Schlien
M: 2/4
L: 1/8
%Q: 1/4=144
K: Bm
"C"|: "Bm"Bcdc | dcB2 | "A"cBAB | "Bm"BB3 | "Bm"Bcdc | dcB2 | "A"cBA2 | "Bm"BB3 :|
"I"|: "Bm"Bcdc | dcB2 | "A"cBAB | "Bm"BB3 | "Bm"Bcdc | dcB2 | "A"cBA2 | "Bm"BB3 :|
"V"|: "Bm"Bffe | fed2 | "A"edcA | "Bm"BB3 | "Bm"Bffe | fed2 | "A"edcA | "Bm"BB3 :|
